X: 76
T: (I don't stand a) Ghost of a chance
M:4/4
L:1/4
C:Victor Young, Bing Crosby & Ned Washington
Q:1/4=120
%%staves (chords melody)
K:C
%%text (ballad)
%%vskip 20
P: A
V:chords
x || "Cmaj7"x2 x2 | "G+7"x2 x2 | "Em7b5"x2 "A7"x2 | "Dm7b5"x2 "G7"x2 |
"C/E"x2 "Am7"x2 | "D7"x2 "G7"x2 | "( Bb7" "Cmaj7"x2 "A7" " "x2 | "Ab7" "T.A."x2 "G7 )" " "x2 |
V:melody
G||GGGG|GG2G|GG_BA|_AA2A|
w:I need your love so bad-ly, I love you, oh, so mad-ly, but
GGd>c|(3ecA GA|E4|z2 zG||
w:I don't stand a ghost of a chance with you. I
P: A
V:chords
"Cmaj7"x2 x2 | "G+7"x2 x2 | "Em7b5"x2 "A7"x2 | "Dm7b5"x2 "G7"x2 |
"C/E"x2 "Am7"x2 | "D7"x2 "G7"x2 | "C6"x2 "F7"x2 | "C6"x2 "A7"x2 |
V:melody
GGGG|GG2G|GG_BA|_AA2A|
w:thought at last I'd found you, but ot-her loves sur-round you, and
GGd>c|(3ecA GA|c4|z4||
w:I don't stand a ghost of a chance with you.
P: B
V:chords
"Dm7"x2 x2 | "G+7"x2 x2 | "C6"x2 x2 | x2 x2 |
"F#m7b5"x2 x2 | "B7"x2 x2 | "Em7"x2 "A7"x2 | "Dm7"x2 "G7"x2 |
V:melody
(3DEFA<A|(3_EFG B<_B|A>EE2-|E3z|
w:If you'd sur-rend-er just for a ten-der kiss or two*
(3^FGA c<c|(3^FGA c<c|B>^FFF|A>_EEG||
w:you might dis-cov-er, that I'm the lov-er meant for you, and I'd be true. But
P: A
V:chords
"Cmaj7"x2 x2 | "G+7"x2 x2 | "Em7b5"x2 "A7"x2 | "Dm7b5"x2 "G7"x2 |
"C/E"x2 "Am7"x2 | "D7"x2 "G7"x2 | "C6"x2 x2 | "T.A."x2 x2 |]
V:melody
GGGG|GG2G|GG_BA|_AA2A|
w:what's the good of schem-ing, I know I must be dream-ing, for
GGd>c|(3ecA GA|c4|z4|]
w:I don't stand a ghost of a chance with you.


